svg/SJJB-OpenStreetMapIcons/tourist/wayside_shrine.svg

<?xml version="1.0" encoding="UTF-8" standalone="no"?>
<!-- Created with Inkscape (http://www.inkscape.org/) -->

<svg
   xmlns:dc="http://purl.org/dc/elements/1.1/"
   xmlns:cc="http://creativecommons.org/ns#"
   xmlns:rdf="http://www.w3.org/1999/02/22-rdf-syntax-ns#"
   xmlns:svg="http://www.w3.org/2000/svg"
   xmlns="http://www.w3.org/2000/svg"
   xmlns:sodipodi="http://sodipodi.sourceforge.net/DTD/sodipodi-0.dtd"
   xmlns:inkscape="http://www.inkscape.org/namespaces/inkscape"
   version="1.0"
   width="580"
   height="580"
   id="svg2"
   sodipodi:version="0.32"
   inkscape:version="0.48.0 r9654"
   sodipodi:docname="tourist_wayside_shrine.svg"
   inkscape:output_extension="org.inkscape.output.svg.inkscape">
  <metadata
     id="metadata2975">
    <rdf:RDF>
      <cc:Work
         rdf:about="">
        <dc:format>image/svg+xml</dc:format>
        <dc:type
           rdf:resource="http://purl.org/dc/dcmitype/StillImage" />
        <cc:license
           rdf:resource="http://web.resource.org/cc/PublicDomain" />
        <dc:language>en</dc:language>
        <dc:title />
      </cc:Work>
    </rdf:RDF>
  </metadata>
  <sodipodi:namedview
     inkscape:window-height="1002"
     inkscape:window-width="1567"
     inkscape:pageshadow="2"
     inkscape:pageopacity="0.0"
     guidetolerance="10.0"
     gridtolerance="10.0"
     objecttolerance="10.0"
     borderopacity="1.0"
     bordercolor="#666666"
     pagecolor="#ffffff"
     id="base"
     inkscape:zoom="0.47226387"
     inkscape:cx="-236.39127"
     inkscape:cy="396.97669"
     inkscape:window-x="351"
     inkscape:window-y="24"
     inkscape:current-layer="svg2"
     showgrid="false"
     inkscape:window-maximized="0" />
  <defs
     id="defs4">
    <inkscape:perspective
       sodipodi:type="inkscape:persp3d"
       inkscape:vp_x="0 : 290 : 1"
       inkscape:vp_y="0 : 1000 : 0"
       inkscape:vp_z="580 : 290 : 1"
       inkscape:persp3d-origin="290 : 193.33333 : 1"
       id="perspective2441" />
    <inkscape:perspective
       id="perspective2466"
       inkscape:persp3d-origin="372.04724 : 350.78739 : 1"
       inkscape:vp_z="744.09448 : 526.18109 : 1"
       inkscape:vp_y="0 : 1000 : 0"
       inkscape:vp_x="0 : 526.18109 : 1"
       sodipodi:type="inkscape:persp3d" />
    <inkscape:perspective
       id="perspective3333"
       inkscape:persp3d-origin="372.04724 : 350.78739 : 1"
       inkscape:vp_z="744.09448 : 526.18109 : 1"
       inkscape:vp_y="0 : 1000 : 0"
       inkscape:vp_x="0 : 526.18109 : 1"
       sodipodi:type="inkscape:persp3d" />
    <inkscape:perspective
       id="perspective3401"
       inkscape:persp3d-origin="372.04724 : 350.78739 : 1"
       inkscape:vp_z="744.09448 : 526.18109 : 1"
       inkscape:vp_y="0 : 1000 : 0"
       inkscape:vp_x="0 : 526.18109 : 1"
       sodipodi:type="inkscape:persp3d" />
    <inkscape:perspective
       id="perspective3464"
       inkscape:persp3d-origin="372.04724 : 350.78739 : 1"
       inkscape:vp_z="744.09448 : 526.18109 : 1"
       inkscape:vp_y="0 : 1000 : 0"
       inkscape:vp_x="0 : 526.18109 : 1"
       sodipodi:type="inkscape:persp3d" />
    <inkscape:perspective
       id="perspective3581"
       inkscape:persp3d-origin="225 : 150 : 1"
       inkscape:vp_z="450 : 225 : 1"
       inkscape:vp_y="0 : 1000 : 0"
       inkscape:vp_x="0 : 225 : 1"
       sodipodi:type="inkscape:persp3d" />
    <inkscape:perspective
       id="perspective4312"
       inkscape:persp3d-origin="225 : 150 : 1"
       inkscape:vp_z="450 : 225 : 1"
       inkscape:vp_y="0 : 1000 : 0"
       inkscape:vp_x="0 : 225 : 1"
       sodipodi:type="inkscape:persp3d" />
  </defs>
  <g
     id="g1327">
    <path
       d="M 66.275,1.768 C 24.94,1.768 1.704,23.139 1.704,66.804 L 1.704,516.927 C 1.704,557.771 22.599,579.156 63.896,579.156 L 515.92,579.156 C 557.227,579.156 578.149,558.841 578.149,516.927 L 578.149,66.804 C 578.149,24.203 557.227,1.768 514.628,1.768 C 514.624,1.768 66.133,1.625 66.275,1.768 z "
       style="fill:#111;stroke:#eee;stroke-width:3.40799999"
       id="path1329" />
  </g>
  <g
     transform="translate(1.9777315,2.9304584)"
     id="g6173">
    <rect
       y="340.70639"
       x="30.866087"
       height="184.55798"
       width="519.81635"
       id="rect2911"
       style="opacity:0.2;fill:#ffffff;fill-opacity:1;stroke:#ffffff;stroke-width:10.9733696;stroke-linecap:round;stroke-linejoin:round;stroke-miterlimit:4;stroke-opacity:1;stroke-dasharray:none" />
    <path
       inkscape:connector-curvature="0"
       id="path2921"
       d="m 21.699573,336.96478 537.064437,0"
       style="fill:none;stroke:#ffffff;stroke-width:20;stroke-linecap:butt;stroke-linejoin:miter;stroke-miterlimit:4;stroke-opacity:1;stroke-dasharray:none" />
    <path
       inkscape:connector-curvature="0"
       style="fill:none;stroke:#ffffff;stroke-width:20;stroke-linecap:butt;stroke-linejoin:miter;stroke-miterlimit:4;stroke-opacity:1;stroke-dasharray:none"
       d="m 21.699573,524.96478 537.064437,0"
       id="path3695" />
    <path
       inkscape:connector-curvature="0"
       id="path3697"
       d="m 37.173702,428.96478 508.821758,0"
       style="fill:none;stroke:#ffffff;stroke-width:19.46699905;stroke-linecap:butt;stroke-linejoin:miter;stroke-miterlimit:4;stroke-opacity:1;stroke-dasharray:38.93399811, 38.93399811;stroke-dashoffset:0" />
  </g>
  <g
     id="g6378"
     transform="matrix(0.58245081,0,0,0.58245081,366.97209,-53.743753)">
    <path
       sodipodi:nodetypes="cc"
       id="path4817"
       d="m -58.01435,312.68741 32.60294,127.78375"
       style="fill:#d53b3b;fill-opacity:1;stroke:#ffffff;stroke-width:128.99134827;stroke-linecap:round;stroke-linejoin:round;stroke-miterlimit:4;stroke-opacity:1;stroke-dasharray:none"
       inkscape:connector-curvature="0" />
    <path
       sodipodi:nodetypes="ccc"
       id="path5329"
       d="m -66.90374,289.75646 -125.29131,17.87175 -73.41962,-87.41982"
       style="fill:none;stroke:#ffffff;stroke-width:56.67275238;stroke-linecap:round;stroke-linejoin:round;stroke-miterlimit:4;stroke-opacity:1;stroke-dasharray:none"
       inkscape:connector-curvature="0" />
    <path
       sodipodi:nodetypes="cc"
       id="path5331"
       d="m 25.13188,580.59838 -173.27583,1.87442"
       style="fill:none;stroke:#ffffff;stroke-width:71.79707336;stroke-linecap:round;stroke-linejoin:round;stroke-miterlimit:4;stroke-opacity:1;stroke-dasharray:none"
       inkscape:connector-curvature="0" />
    <path
       sodipodi:nodetypes="cc"
       id="path5333"
       d="M 1.9041098,457.51476 -147.20389,568.03986"
       style="fill:none;stroke:#ffffff;stroke-width:78.40309906;stroke-linecap:round;stroke-linejoin:round;stroke-miterlimit:4;stroke-opacity:1;stroke-dasharray:none"
       inkscape:connector-curvature="0" />
    <path
       style="fill:#ffffff;fill-opacity:1;stroke:#ffffff;stroke-width:78.40309906;stroke-linecap:round;stroke-linejoin:round;stroke-miterlimit:4;stroke-opacity:1;stroke-dasharray:none"
       d="m -111.434,165.91423 c -16.39627,0.74391 -22.85159,24.39144 -9.28973,33.41041 12.35231,10.18832 32.79976,-2.15972 29.44467,-17.92753 -1.48092,-9.45077 -10.60853,-16.54984 -20.15494,-15.48288 z"
       id="path5339"
       inkscape:connector-curvature="0" />
    <path
       style="fill:none;stroke:#ffffff;stroke-width:78.40309906;stroke-linecap:round;stroke-linejoin:round;stroke-miterlimit:4;stroke-opacity:1;stroke-dasharray:none"
       d="M -12.459,446.46622 -147.20389,568.03986"
       id="path4057"
       sodipodi:nodetypes="cc"
       inkscape:connector-curvature="0" />
    <path
       style="fill:none;stroke:#ffffff;stroke-width:56.67275238;stroke-linecap:round;stroke-linejoin:round;stroke-miterlimit:4;stroke-opacity:1;stroke-dasharray:none"
       d="m -66.90374,299.75646 -125.29131,7.87175 -73.41962,-87.41982"
       id="path4059"
       sodipodi:nodetypes="ccc"
       inkscape:connector-curvature="0" />
  </g>
</svg>

<svg xmlns="http://www.w3.org/2000/svg" viewBox="0 0 580 580"><path d="m66.28 1.768c-41.34 0-64.57 21.371-64.57 65.04v450.12c0 40.844 20.895 62.23 62.19 62.23h452.02c41.31 0 62.23-20.315 62.23-62.23v-450.12c0-42.601-20.922-65.04-63.52-65.04-.004 0-448.5-.143-448.35 0z" fill="#111" stroke="#eee" stroke-width="3.408"/><g transform="translate(1.978 2.93)" stroke="#fff"><path opacity=".2" fill="#fff" stroke-linejoin="round" stroke-linecap="round" stroke-width="10.973" d="m30.866 340.71h519.82v184.56h-519.82z"/><g fill="none"><g stroke-width="20"><path d="m21.7 336.96h537.06"/><path d="m21.7 524.96h537.06"/></g><path d="m37.17 428.96h508.82" stroke-dasharray="38.934 38.934" stroke-width="19.467"/></g></g><g transform="matrix(.58245 0 0 .58245 366.97-53.744)" stroke="#fff" stroke-linejoin="round" stroke-linecap="round"><path d="m-58.01 312.69l32.603 127.78" fill="#d53b3b" stroke-width="128.99"/><g fill="none"><path d="m-66.904 289.76l-125.29 17.872-73.42-87.42" stroke-width="56.673"/><path d="m25.13 580.6l-173.28 1.874" stroke-width="71.797"/><path d="m1.904 457.51l-149.11 110.53" stroke-width="78.4"/></g><g stroke-width="78.4"><path d="m-111.43 165.91c-16.396.744-22.852 24.391-9.29 33.41 12.352 10.188 32.8-2.16 29.445-17.928-1.481-9.451-10.609-16.55-20.15-15.483z" fill="#fff"/><path d="m-12.459 446.47l-134.74 121.57" fill="none"/></g><path d="m-66.904 299.76l-125.29 7.872-73.42-87.42" fill="none" stroke-width="56.673"/></g></svg>
